X:354
T:Prince Charlie's Wellcome to the Island of Skye #2
C:Joe Buchanan's Scottish Tome - Page 164.1
I:164 1
Z:Carl Allison
C:AKA Prince Charlie's Welcome to the Isle of Skye #2
R:March
L:1/8
M:4/4
K:D
dB | "D"B2 D2 GFED | "D"A2 D2 GFED | "Em"B2 E2 EFGA | "Em"B2 E2 "A"E2 FG |
"D"A2 GF "Bm"d2 cB | "Em"BAGF "A"GFED | "D"FEDB, "A"A,B,DE | "D"F2 D2 D2 :|
de | "D"f2 df "A"e2 ce | "Bm"d2 Ad "A"BAGF | "Em"B2 E2 "F#"EFGB | "Em"B2 E2 "A"E2 de |
"D"f2 df "A"e2 ce | "Bm"d2 Ad "A"BAGF | "G"GFED "A"A,B,DE | "D"F2 D2 D2 :|

